X:1
T:Title
%%score { ( 1 3 ) | 2 }
L:1/8
M:6/4
K:G
V:1 treble nm="Grand Piano"
V:3 treble 
V:2 bass 
V:1
 z4[Q:1/4=112] G2- G2 | B2 d2 B2- B2 A4 | G2 E2 [B,D]2- [B,D]2 G4 | F2 G2 A2- A2 A4 | %4
 B2 G2 [FA]2- [FA]2 [FA]4 | B2 d2 B2- B2 z2 C2 | G2 E2 D2- D2 F4 | %7
 [DG]2 [DB]2 [G,CE]2- [G,CE]2 [CEA]4 |[M:4/4] [B,DG]2 [A,CF]2 [G,B,G]4 |] %9
V:2
 z4 [G,B,D]2- [G,B,D]2 | [G,D]2 [G,B,D]2 [G,D]2- [G,D]2 [D,F,D]4 | %2
 [E,G,B,]2 [C,G,C]2 [G,,G,]2- [G,,G,]2 [G,B,D]4 | [D,A,D]2 [E,G,B,]2 [D,F,D]2- [D,F,D]2 [D,F,D]4 | %4
 [G,D]2 [G,B,D]2 [D,D]2- [D,D]2 [D,D]4 | [G,DG]2 [G,B,G]2[K:bass] [G,D]2- [G,D]2 .[D,F,D]4 | %6
 [E,G,B,]2 [C,G,C]2 [D,F,A,]2- [D,F,A,]2 [D,A,D]4 | [B,,G,]2 [G,,G,]2 C,2- C,2 A,,4 | %8
[M:4/4] D,2 D,2 G,,4 |] %9
V:3
 x8 | x12 | x12 | x12 | x12 | z6 z2 A4 | x12 | x12 |[M:4/4] x8 |] %9

